X:1
T:Title
%%score 1 2
L:1/8
Q:1/4=90
M:2/4
K:Ab
V:1 treble nm="Piano" snm="Pno."
V:2 bass nm="Piano" snm="Pno."
V:1
 z4 | z/ A/[Ee]/A/ c/[Ee]G/ | [Ee]/G/B/[Ee]/- [Ee]2 | z/ A/[Ee]/A/ c/[Ee]G/ | %4
 [Ee]/G/B/[Ee]/- [Ee]>[Ee] | z/ A/_c/[=E=e].[_E_e][Ee]/ | z/ A/_c/[=E=e].[_E_e]3/2 | %7
 z/ A,,/_C,/A,A,/_C/A/- | A/A/_c/aa/_c'/a'/ | [aa'].[aa'] [aa'].[aa']/[aa']/- | %10
 [aa']/e'/f'/c'/ e'/[af'][=ea]/- | [ea]/b/[=e_c']/a/ b/[_e=c']a/ | [ec']/a/[eb] .[ea]>[Aa]- | %13
 [Aa].[Aa] [Aa].[Aa]/[Aa]/- | [Aa]/e/f/c/ e/[Af][=EA]/- | [EA]/B/[=E_c]/A/ B/.[_E=c]A/ | %16
 [Ec]/A/[EB] .[EA]2 | z/ A/[Ee]/A/ c/[Ee]G/ | [Ee]/G/B/[Ee]/- [Ee]2 | z/ A/[Ee]/A/ c/[Ee]G/ | %20
 [Ee]/G/B/[Ee]/- [Ee]>[Ee] | z/ A/_c/[=E=e].[_E_e][Ee]/ | z/ A/_c/[=E=e].[_E_e]3/2 | %23
 z/ A,,/_C,/A,A,/_C/A/- | A/A/_c/aa/_c'/a'/ | [aa'].[aa'] [aa'].[aa']/[aa']/- | %26
 [aa']/e'/f'/c'/ e'/[af'][=ea]/- | [ea]/b/[=e_c']/a/ b/[_e=c']a/ | [ec']/a/[eb] .[ea]>[Aa]- | %29
 [Aa].[Aa] [Aa].[Aa]/[Aa]/- | [Aa]/e/f/c/ e/[Af][=EA]/- | [EA]/B/[=E_c]/A/ B/[_E=c]A/ | %32
 [Ec]/A/[EB] .[EA]2 | z/ .g/.[ee']/.g/ .b/.[=d=d'].g/ | .[dd']/.g/.b/[cc'].e/.[Bb]/.e/ | %35
 z/ .c/.[Aa]/.c/ .e/.[Ff].c/ | .[Aa]/.c/.e/[Ff]c/.[Ff] | z/ .e/.[Gg]/.B/ .d/.[Ff].e/ | %38
 .[Gg]/.B/.d/[Ff]d/.[Ff] | z/ .c/.[Aa]/.c/ .e/.[Ff].c/ | .[Aa]/.c/.e/[Ff].c/.[Ff] | %41
 z/ .g/.[ee']/.g/ .b/.[=d=d'].g/ | .[dd']/.g/.b/[cc'].e/.[Bb]/.e/ | z/ .c/.[Aa]/.c/ .e/.[Ff].c/ | %44
 [Aa].[Aa] [Gg].[_G_g] | z/ .F/.=A/.c/ .f/.c/.A/F/ | z/ .F/.B/.d/ [Ff].[FBd] | %47
 .[=DFAc]3/2.[DFAc].[_DB].E/ | [CA].[Ee] [Ee].[Ee] | z/ .g/.[ee']/.g/ .b/[=d=d'].g/ | %50
 .[dd']/.g/.b/[cc'].e/.[Bb]/.e/ | z/ .c/.[Aa]/.c/ .e/[Ff].c/ | [Aa]/.c/.e/[Ff].c/.[Ff] | %53
 z/ .e/.[Gg]/.B/ .d/[Ff].e/ | .[Gg]/.B/.d/[Ff].d/[Ff] | z/ .c/.[Aa]/.c/ .e/.[Ff].c/ | %56
 .[Aa]/.c/.e/[Ff].c/[Ff] | z/ .g/.[ee']/.g/ .b/[=d=d'].g/ | .[dd']/.g/.b/[cc'].e/.[Bb]/.e/ | %59
 z/ .c/.[Aa]/.c/ .e/.[Ff].c/ | [Aa].[Aa] [Gg].[_G_g] | z/ .F/.=A/.c/ .f/.c/.A/.F/ | %62
 z/ .F/.B/.d/ [Ff].[FBd] | .[=DFAc]3/2[DFAc][_DB].E/ | z/ .A/c/.e/ .[Aa]2 | z/ A/[Ee]/A/ c/[Ee]G/ | %66
 [Ee]/G/B/[Ee]/- [Ee]2 | z/ A/[Ee]/A/ c/[Ee]G/ | [Ee]/G/B/[Ee]/- [Ee]>[Ee] | %69
 z/ A/_c/[=E=e].[_E_e][Ee]/ | z/ A/_c/[=E=e].[_E_e]3/2 | z/ A,,/_C,/A,A,/_C/A/- | %72
 A/A/_c/aa/_c'/a'/ | .[aa'].[aa'] .[aa'].[aa']/[aa']/- | [aa']/e'/f'/c'/ e'/[af'][=ea]/ | %75
 z/ b/[=e_c']/.a/ b/.[_e=c']a/ | [ec']/.a/[eb] .[ea]>[Aa]- | [Aa].[Aa] .[Aa].[Aa]/[Aa]/- | %78
 [Aa]/e/f/c/ e/[Af][=EA]/- | [EA]/B/[=E_c]/A/ B/[_E=c]A/ | [Ec]/A/[EB] [EA].[Aa] | %81
 [Acea]3/2[Bcea].[ce]/.B | [Acea]3/2[Bcea].[ce]/B/.[ce]/ | A/.d/B/.d/ .f/.A/.d/.f/ | %84
 B/.d/.f/A.f/B/.f/ | [Acea]3/2[Bcea].[ce]/.B | [Acea]3/2[Bcea][ce]/B/.[ce]/ | %87
 A/.d/.B/.d/ f/.A/d/.f/ | B/.d/f/A.f/.=A/.[ef]/ | .[B=dfb]3/2[cdfb].[df]/.c | %90
 .[B=dfb]3/2[cdfb].[df]/c/[df]/ | z/ .e/.[Bb]/.e/ ._g/[cc'].e/ | .[Bb]/.e/._g/[cc'].e/.[Bb] | %93
 [d=ed'].[ded'] [cec'].[Beb] | [Af]/.d/.e/[B_g].B/.[Af] | [Gf]/.d/.e/[_Gf].c/.[Ge]/[Fd]/ | %96
 z/ .[Aa].f/ [Aa]/.f/[Aa]/.f/ | [Acea]3/2[Bcea].[ce]/.B | [Acea]3/2[Bcea][ce]/B/.[ce]/ | %99
 .A/.d/.B/.d/ .f/.A/.d/.f/ | B/.d/.f/A.f/B/.f/ | [Acea]3/2[Bcea][ce]/.B | %102
 [Acea]3/2[Bcea].[ce]/B/.[ce]/ | A/.d/.B/.d/ .f/.A/.d/.f/ | .B/.d/.f/A.f/.=A/.[ef]/ | %105
 .[B=dfb]3/2[cdfb].[df]/.c | .[B=dfb]3/2[cdfb].[df]/c/[df]/ | z/ .e/.[Bb]/.e/ _g/[cc'].e/ | %108
 .[Bb]/.e/._g/[cc'].e/.[Bb] | [d=ed'].[ded'] [cec'].[Beb] | .[Af]/d/.e/[B_g]B/.[Af] | %111
 [Gf]/.d/.e/[_Gf].c/.[Ge]/[Fd]/ | z/ d/f/a/ .[dd']2 | [Aa].[Af] [Aa].[Af] | [fa].[fb]/[fc']b/a/f/ | %115
 e/f[Ac]/- [Ac]2 | z/ e/[Af]/.c/ e/.[Af]c/ | .[Ge].f/[GB]/- [GB]2 | z/ d/[Gf]/B/ d/.[Gf][Ac]/- | %119
 [Ac]/.e/[Af]/.c/ e/[Af][Ac]/- | [Ac]/e/.[Af]/c/ e/.[Af].e/ | [Aa].[Af] [Aa].[Af] | %122
 [fa][fb]/[fc']/- [fc']/b/a/f/ | a.f e/.a[Ac]/- | [Ac]/.e/[Af]/c/ e/[Af][FA]/- | %125
 [FA]/B/.[FA] [=EA][EB]/[_EA]/- | [EA]/B/[Ec]/A/ B/[Ec][=DA]/- | [DA]/B/[=Dc]/A.[_DB].E/ | %128
 [CA].[Ee] [Ee].[Ee] | [Aa].[Af] [Aa].[Af] | [fa].[fb]/c'/- c'/b/a/.f/ | e/f[Ac]/- [Ac]2 | %132
 z/ e/.[Af]/.c/ e/.[Af]c/ | [Ge].f/[GB]/- [GB]2 | z/ d/.[Gf]/.B/ d/.[Gf][Ac]/- | %135
 [Ac]/.e/.[Af]/c/ e/[Af][Ac]/- | [Ac]/e/.[Af]/c/ e/.[Af].e/ | [Aa].[Af] [Aa].[Af] | %138
 [fa][fb]/[fc']/- [fc']/b/a/f/ | a.f e/a[Ac]/- | [Ac]/.e/[Af]/c/ e/[Af][FA]/- | %141
 [FA]/B/.[FA] [=EA][EB]/[_EA]/- | [EA]/B/[Ec]/A/ B/[Ec][=DA]/- | [DA]/B/[=Dc]/A.[_DB].E/ | %144
 [CA].[Gde] .[Acea]2 |] %145
V:2
 z2 z .[E,,E,] | .[A,,A,].[E,A,C] .[E,A,C].[=A,,=A,] | .[B,,B,].[E,G,D] .[E,G,D].[E,,E,] | %3
 .[A,,A,].[E,A,C] .[E,A,C].[=A,,=A,] | .[B,,B,].[E,G,D] .[E,G,D].[E,,E,] | %5
 [=E,,=E,]2 .[_E,,_E,].[E,,E,] | [=E,,=E,]2 .[_E,,_E,]2 | .A,,,2 .A,,2 | .A,2 .A2 | %9
 .[=DFA_c].[DFAc] .[DFAc].[DFAc] | .[EAc].[EAc] .[EAc].[EAc] | .[=EA_c].[EAc] .[_EA=c].[EAc] | %12
 .[EAc].[EGd] .[Ac]2 | .[=D,F,A,_C].[D,F,A,C] .[D,F,A,C].[D,F,A,C] | %14
 .[E,A,C].[E,A,C] .[E,A,C].[E,A,C] | .[=E,A,_C].[E,A,C] .[_E,A,=C].[E,A,C] | %16
 .[E,A,C].[E,G,D] .[A,C].[E,,E,] | .[A,,A,].[E,A,C] .[E,A,C].[=A,,=A,] | %18
 .[B,,B,].[E,G,D] .[E,G,D].[E,,E,] | .[A,,A,].[E,A,C] .[E,A,C].[=A,,=A,] | %20
 .[B,,B,].[E,G,D] .[E,G,D].[E,,E,] | [=E,,=E,]2 .[_E,,_E,].[E,,E,] | [=E,,=E,]2 .[_E,,_E,]2 | %23
 .A,,,2 .A,,2 | .A,2 .A2 | .[=DFA_c].[DFAc] .[DFAc].[DFAc] | .[EAc].[EAc] .[EAc].[EAc] | %27
 .[=EA_c].[EAc] .[_EA=c].[EAc] | .[EAc].[EGd] .[Ac]2 | %29
 .[=D,F,A,_C].[D,F,A,C] .[D,F,A,C].[D,F,A,C] | .[E,A,C].[E,A,C] .[E,A,C].[E,A,C] | %31
 .[=E,A,_C].[E,A,C] .[_E,A,=C].[E,A,C] | .[E,A,C].[E,G,D] .[A,C].[=A,,=A,] | %33
 .[B,,B,].[E,G,D] .[E,,E,].[E,G,D] | .[B,,B,].[E,G,D] .[E,,E,].[G,,G,] | %35
 .[A,,A,].[E,A,C] .[E,,E,].[E,A,C] | .[A,,A,].[E,A,C] .[A,,A,].[=A,,=A,] | %37
 .[B,,B,].[E,G,D] .[E,,E,].[E,G,D] | .[B,,B,].[E,G,D] .[B,,B,].[_C,_C] | %39
 .[C,C].[E,A,C] .[E,,E,].[E,A,C] | .[A,,A,].[E,A,C] .[A,,A,].[=A,,=A,] | %41
 .[B,,B,].[E,G,D] .[E,,E,].[E,G,D] | .[B,,B,].[E,G,D] .[E,,E,].[G,,G,] | %43
 .[A,,A,].[E,A,C] .[E,,E,].[E,A,C] | .[A,,A,].[A,,A,] .[G,,G,].[_G,,_G,] | %45
 .[F,,F,].[F,,F,] .[=A,,=A,].[A,,A,] | .[B,,B,].[F,B,D] .[F,B,D].[F,B,D] | %47
 .[B,,F,B,].[B,,F,B,] .[E,,E,].[G,,G,] | .[A,,A,].[E,A,C] .[E,A,C].[=A,,=A,] | %49
 .[B,,B,].[E,G,D] .[E,,E,].[E,G,D] | .[B,,B,].[E,G,D] .[E,,E,].[G,,G,] | %51
 .[A,,A,].[E,A,C] .[E,,E,].[E,A,C] | .[A,,A,].[E,A,C] .[A,,A,].[=A,,=A,] | %53
 .[B,,B,].[E,G,D] .[E,,E,].[E,G,D] | .[B,,B,].[E,G,D] .[B,,B,].[_C,_C] | %55
 .[C,C].[E,A,C] .[E,,E,].[E,A,C] | .[A,,A,].[E,A,C] .[A,,A,].[=A,,=A,] | %57
 .[B,,B,].[E,G,D] .[E,,E,].[E,G,D] | .[B,,B,].[E,G,D] .[E,,E,].[G,,G,] | %59
 .[A,,A,].[E,A,C] .[E,,E,].[E,A,C] | .[A,,A,].[A,,A,] .[G,,G,].[_G,,_G,] | %61
 .[F,,F,].[F,,F,] .[=A,,=A,].[A,,A,] | .[B,,B,].[F,B,D] .[F,B,D].[F,B,D] | %63
 .[B,,F,B,].[B,,F,B,] .[E,,E,].[G,,G,] | .[A,,A,].[A,CE] [A,CE].[E,,E,] | %65
 .[A,,A,].[E,A,C] .[E,A,C].[=A,,=A,] | .[B,,B,].[E,G,D] .[E,G,D].[E,,E,] | %67
 .[A,,A,].[E,A,C] .[E,A,C].[=A,,=A,] | .[B,,B,].[E,G,D] .[E,G,D].[E,,E,] | %69
 [=E,,=E,]2 .[_E,,_E,].[E,,E,] | [=E,,=E,]2 .[_E,,_E,]2 | .A,,,2 .A,,2 | .A,2 .A2 | %73
 .[=DFA_c].[DFAc] .[DFAc].[DFAc] | .[EAc].[EAc] .[EAc].[EAc] | .[=EA_c].[EAc] .[_EA=c].[EAc] | %76
 .[EAc].[EGd] .[EAc]2 | .[=D,F,A,_C].[D,F,A,C] .[D,F,A,C].[D,F,A,C] | %78
 .[E,A,C].[E,A,C] .[E,A,C].[E,A,C] | .[=E,A,_C].[E,A,C] .[_E,A,=C].[E,A,C] | %80
 .[E,A,C].[E,G,D] .[A,C]2 | .[E,,E,].[A,C_G] .[_G,,_G,].[A,CG] | %82
 .[F,,F,].[A,C_G] .[E,,E,].[C,,C,] | .[D,,D,].[A,DF] .[A,,A,].[A,DF] | %84
 .[F,,F,].[A,DF] .[D,,D,].[=D,,=D,] | .[E,,E,].[A,C_G] .[_G,,_G,].[A,CG] | %86
 .[F,,F,].[A,C_G] .[E,,E,].[C,,C,] | .[D,,D,].[A,DF] .[A,,A,].[A,DF] | %88
 .[F,,F,].[A,DF] .[D,,D,].[C,,C,] | .[B,,,B,,].[B,=DA] .[=D,,=D,].[B,DA] | %90
 .[F,,F,].[B,=DA] .[B,,B,].[B,DA] | .[E,,E,].[B,E_G] .[_G,,_G,].[B,EG] | %92
 .[E,,E,].[B,E_G] .[_G,,_G,].[B,EG] | .G,/.B,.D/ .=E/D/.B,/G,/ | .[A,,A,].[A,DF] .B,,.[A,B,=D] | %95
 .[E,B,D].[E,B,D] .[A,C].[A,C] | .[D,D].[A,DF] .[A,DF].[=D,,=D,] | %97
 .[E,,E,].[A,C_G] .[_G,,_G,].[A,CG] | .[F,,F,].[A,C_G] .[E,,E,].[C,,C,] | %99
 .[D,,D,].[A,DF] .[A,,A,].[A,DF] | .[F,,F,].[A,DF] .[D,,D,].[=D,,=D,] | %101
 .[E,,E,].[A,C_G] .[_G,,_G,].[A,CG] | .[F,,F,].[A,C_G] .[E,,E,].[C,,C,] | %103
 .[D,,D,].[A,DF] .[A,,A,].[A,DF] | .[F,,F,].[A,DF] .[D,,D,].[C,,C,] | %105
 .[B,,,B,,].[B,=DA] .[=D,,=D,].[B,DA] | .[F,,F,].[B,=DA] .[B,,B,].[B,DA] | %107
 .[E,,E,].[B,E_G] .[_G,,_G,].[B,EG] | .[E,,E,].[B,E_G] .[_G,,_G,].[B,EG] | %109
 .G,/.B,.D/ .=E/.D/.B,/.G,/ | .[A,,A,].[A,DF] .B,,.[A,B,=D] | .[E,B,D].[E,B,D] .[A,C].[A,C] | %112
 .[D,D].[A,,A,] .[D,,D,].[C,C] | .[D,D].[A,DF] .[A,DF].[C,C] | .[D,D].[A,DF] .[B,,B,].[_C,_C] | %115
 .[C,C].[A,CE] .[A,CE].[E,,E,] | .[A,,A,].[E,A,C] .[E,,E,].[=A,,=A,] | %117
 .[B,,B,].[E,G,D] .[E,,E,].[=A,,=A,] | .[B,,B,].[E,G,D] .[E,,E,].[G,,G,] | %119
 .[A,,A,].[E,A,C] .[E,,E,].[E,A,C] | .[A,,A,].[E,A,C] .[B,,B,].[C,C] | %121
 .[D,D].[A,DF] .[A,DF].[C,C] | .[D,D].[A,DF] .[B,,B,].[_C,_C] | .[C,C].[A,CE] .[A,CE].[E,,E,] | %124
 .[A,,A,].[E,A,C] .[E,,E,].[E,A,C] | .[D,,D,].[D,,D,] .[B,,,B,,].[=D,,=D,] | %126
 .[E,,E,].[E,A,C] .[E,,E,].[=E,,=E,] | .[F,,F,].[F,,F,] .[G,,G,].[G,,G,] | %128
 .[A,,A,].[E,A,C] .[B,,B,].[C,C] | .[D,D].[A,DF] .[A,DF].[C,C] | .[D,D].[A,DF] .[B,,B,].[_C,_C] | %131
 .[C,C].[A,CE] .[A,CE].[E,,E,] | .[A,,A,].[E,A,C] .[E,,E,].[=A,,=A,] | %133
 .[B,,B,].[E,G,D] .[E,,E,].[=A,,=A,] | .[B,,B,].[E,G,D] .[E,,E,].[G,,G,] | %135
 .[A,,A,].[E,A,C] .[E,,E,].[E,A,C] | .[A,,A,].[E,A,C] .[B,,B,].[C,C] | %137
 .[D,D].[A,DF] .[A,DF].[C,C] | .[D,D].[A,DF] .[B,,B,].[_C,_C] | .[C,C].[A,CE] .[A,CE].[E,,E,] | %140
 .[A,,A,].[E,A,C] .[E,,E,].[E,A,C] | .[D,,D,].[D,,D,] .[B,,,B,,].[=D,,=D,] | %142
 .[E,,E,].[E,A,C] .[E,,E,].[=E,,=E,] | .[F,,F,].[F,,F,] .[G,,G,].[G,,G,] | %144
 [A,,A,].[E,,E,] .[A,,,A,,]2 |] %145

